X:49
T:En passant par la Lorraine
R:Chanson
O:France
B:Le livre des Chansons (Henri Davenson) n°49
Z:<anamnese@caramail.com> -- http://anamnese.fr.st
M:6/8
L:1/8
Q:1/4=150
K:F
F2 F | c2 c c2 c | d2 B c2 c | d2 d c3-|c zz
F2 F | c2 c c2 c | d2 B c2 c | d2 d c3-|c zz
c2 c | f2 c c2 B | A2 G A2 A | A2 c c2 B |
A2 G F2 A | c3-c zz | d2 B G2 E | F6-|F zz ||
W:En passant par la Lorraine, avec mes sabots (2x)
W:Rencontrai trois capitaines, avec mes sabots dondaine oh ! oh ! oh !
W:Avec mes sabots !
W:
W:Ils m'ont appelée vilaine.
W:Je ne suis pas si vilaine,
W:Puisque le fils du roi m'aime.
W:Ils m'ont donné pour étrennes
W:Un bouquet de marjolaine :
W:S'il fleurit, je serai reine ;
W:S'il y meurt, je perds ma peine.

